ufans-frontend-package/public/assets/images/new-settings/additional-info.svg

<?xml version="1.0"?>
<svg xmlns="http://www.w3.org/2000/svg" xmlns:xlink="http://www.w3.org/1999/xlink" xmlns:svgjs="http://svgjs.com/svgjs" version="1.1" width="512" height="512" x="0" y="0" viewBox="0 0 24 24" style="enable-background:new 0 0 512 512" xml:space="preserve"><g><g xmlns="http://www.w3.org/2000/svg" id="_02_Additional_Add_New" data-name="02 Additional, Add, New"><path d="m4 21h11v2h-11a3 3 0 0 1 -3-3v-16a3 3 0 0 1 3-3h11a1 1 0 0 1 .8.4l3 4a1 1 0 0 1 .2.6v5h-2v-4.67l-2.5-3.33h-10.5a1 1 0 0 0 -1 1v16a1 1 0 0 0 1 1zm19-4h-4v-4h-2v4h-4v2h4v4h2v-4h4zm-9-11h-8v2h8zm-8 6h6v-2h-6z" fill="#6661e7" data-original="#000000"/></g></g></svg>

<svg xmlns="http://www.w3.org/2000/svg" width="22" height="22" viewBox="0 0 22 22">
  <g id="additional-info" transform="translate(-1 -1)">
    <g id="_02_Additional_Add_New" data-name="02 Additional, Add, New">
      <path id="Path_1" data-name="Path 1" d="M4,21H15v2H4a3,3,0,0,1-3-3V4A3,3,0,0,1,4,1H15a1,1,0,0,1,.8.4l3,4A1,1,0,0,1,19,6v5H17V6.33L14.5,3H4A1,1,0,0,0,3,4V20A1,1,0,0,0,4,21Zm19-4H19V13H17v4H13v2h4v4h2V19h4ZM14,6H6V8h8ZM6,12h6V10H6Z" fill="#e44499"/>
    </g>
  </g>
</svg>
